build/img/icon/viber.svg

<svg width="50" height="50" fill="none" xmlns="http://www.w3.org/2000/svg"><path d="M25 43c9.941 0 18-8.059 18-18S34.941 7 25 7 7 15.059 7 25s8.059 18 18 18z" fill="#fff"/><path d="M25 0C11.194 0 0 11.194 0 25s11.194 25 25 25 25-11.194 25-25S38.806 0 25 0zm-.937 12.977c.184-.004.376.025.541.025.067 0 .13-.006.183-.02 5.948.216 11.137 5.623 11.03 11.57 0 .54.216 1.406-.65 1.406-.865 0-.648-.865-.648-1.514a19.235 19.235 0 00-.387-2.197 13.323 13.323 0 00-.603-1.9 9.444 9.444 0 00-1.336-2.327c-1.607-2.029-4.047-3.193-7.514-3.74-.54-.107-1.298 0-1.298-.648 0-.563.324-.655.682-.655zm8.185 11.791c-.973.109-.758-.757-.865-1.297-.65-3.785-1.947-5.19-5.839-6.056-.54-.108-1.405 0-1.298-.864.109-.865.973-.54 1.515-.432 3.892.432 7.028 3.675 7.028 7.352-.108.432.216 1.19-.54 1.298l-.001-.001zm-2.379-1.945c0 .432 0 .972-.649 1.08-.432 0-.649-.324-.757-.756-.108-1.622-.974-2.487-2.595-2.704-.432-.108-.973-.216-.758-.866.11-.432.54-.432.975-.432 1.838-.107 3.784 1.839 3.784 3.678zm6.055 11.895c-.649 1.838-2.92 3.676-4.866 3.676-.216-.108-.757-.108-1.297-.325-8.434-3.676-14.706-9.624-18.167-18.274-1.19-2.812.108-5.298 3.029-6.272a2.11 2.11 0 011.62 0c1.299.433 4.434 4.867 4.543 6.164.107 1.08-.65 1.621-1.298 2.054-1.298.866-1.298 2.055-.757 3.244 1.298 2.812 3.46 4.65 6.163 5.948.974.432 1.947.432 2.596-.65 1.189-1.838 2.703-1.838 4.325-.648.757.54 1.621 1.081 2.378 1.73 1.083.865 2.38 1.621 1.731 3.352v.001z" fill="#935BBE"/></svg>

<svg width="50" height="50" viewBox="0 0 50 50" fill="none" xmlns="http://www.w3.org/2000/svg"><path d="M25 43C34.9411 43 43 34.9411 43 25C43 15.0589 34.9411 7 25 7C15.0589 7 7 15.0589 7 25C7 34.9411 15.0589 43 25 43Z" fill="white"></path><path d="M25 0C11.194 0 0 11.194 0 25C0 38.806 11.194 50 25 50C38.806 50 50 38.806 50 25C50 11.194 38.806 0 25 0ZM24.063 12.977C24.247 12.973 24.439 13.002 24.604 13.002C24.671 13.002 24.734 12.996 24.787 12.982C30.735 13.198 35.924 18.605 35.817 24.552C35.817 25.092 36.033 25.958 35.167 25.958C34.302 25.958 34.519 25.093 34.519 24.444C34.4326 23.7048 34.3034 22.9712 34.132 22.247C33.9787 21.5995 33.7772 20.9644 33.529 20.347C33.1967 19.5117 32.7468 18.7281 32.193 18.02C30.586 15.991 28.146 14.827 24.679 14.28C24.139 14.173 23.381 14.28 23.381 13.632C23.381 13.069 23.705 12.977 24.063 12.977V12.977ZM32.248 24.768C31.275 24.877 31.49 24.011 31.383 23.471C30.733 19.686 29.436 18.281 25.544 17.415C25.004 17.307 24.139 17.415 24.246 16.551C24.355 15.686 25.219 16.011 25.761 16.119C29.653 16.551 32.789 19.794 32.789 23.471C32.681 23.903 33.005 24.661 32.249 24.769L32.248 24.768ZM29.869 22.823C29.869 23.255 29.869 23.795 29.22 23.903C28.788 23.903 28.571 23.579 28.463 23.147C28.355 21.525 27.489 20.66 25.868 20.443C25.436 20.335 24.895 20.227 25.11 19.577C25.22 19.145 25.65 19.145 26.085 19.145C27.923 19.038 29.869 20.984 29.869 22.823ZM35.924 34.718C35.275 36.556 33.004 38.394 31.058 38.394C30.842 38.286 30.301 38.286 29.761 38.069C21.327 34.393 15.055 28.445 11.594 19.795C10.404 16.983 11.702 14.497 14.623 13.523C14.8797 13.4163 15.155 13.3613 15.433 13.3613C15.711 13.3613 15.9863 13.4163 16.243 13.523C17.542 13.956 20.677 18.39 20.786 19.687C20.893 20.767 20.136 21.308 19.488 21.741C18.19 22.607 18.19 23.796 18.731 24.985C20.029 27.797 22.191 29.635 24.894 30.933C25.868 31.365 26.841 31.365 27.49 30.283C28.679 28.445 30.193 28.445 31.815 29.635C32.572 30.175 33.436 30.716 34.193 31.365C35.276 32.23 36.573 32.986 35.924 34.717V34.718Z" fill="#935BBE"></path></svg>
